assets/efishery/cobox-fill.svg

<svg width="24" height="25" viewBox="0 0 24 25" fill="none" xmlns="http://www.w3.org/2000/svg">
<path d="M4.5 10.2734V9.77344H6V10.2734H4.5Z" fill="#1D1D1D"/>
<path d="M16.5 10.5234V9.77344H19V10.5234H16.5Z" fill="#1D1D1D"/>
<path d="M16.5 11.5234V15.2734H19V11.5234H16.5Z" fill="#1D1D1D"/>
<path d="M11.25 13.7734C10.8358 13.7734 10.5 14.1092 10.5 14.5234C10.5 14.9377 10.8358 15.2734 11.25 15.2734C11.6642 15.2734 12 14.9377 12 14.5234C12 14.1092 11.6642 13.7734 11.25 13.7734Z" fill="#1D1D1D"/>
<path d="M6.25 13.7734C5.83579 13.7734 5.5 14.1092 5.5 14.5234C5.5 14.9377 5.83579 15.2734 6.25 15.2734C6.66421 15.2734 7 14.9377 7 14.5234C7 14.1092 6.66421 13.7734 6.25 13.7734Z" fill="#1D1D1D"/>
<path fill-rule="evenodd" clip-rule="evenodd" d="M1 8.02344C1 7.05694 1.7835 6.27344 2.75 6.27344H20.75C21.7165 6.27344 22.5 7.05694 22.5 8.02344V17.0234C22.5 17.9899 21.7165 18.7734 20.75 18.7734H2.75C1.7835 18.7734 1 17.9899 1 17.0234V8.02344ZM3.75 8.27344C3.33579 8.27344 3 8.60922 3 9.02344V11.0234C3 11.4377 3.33579 11.7734 3.75 11.7734H6.75C7.16421 11.7734 7.5 11.4377 7.5 11.0234V9.02344C7.5 8.60922 7.16421 8.27344 6.75 8.27344H3.75ZM15.75 8.27344C15.3358 8.27344 15 8.60922 15 9.02344V16.0234C15 16.4377 15.3358 16.7734 15.75 16.7734H19.75C20.1642 16.7734 20.5 16.4377 20.5 16.0234V9.02344C20.5 8.60922 20.1642 8.27344 19.75 8.27344H15.75ZM14.25 12.0234C14.5261 12.0234 14.75 11.7996 14.75 11.5234C14.75 11.2473 14.5261 11.0234 14.25 11.0234C13.9739 11.0234 13.75 11.2473 13.75 11.5234C13.75 11.7996 13.9739 12.0234 14.25 12.0234ZM14.75 13.5234C14.75 13.7996 14.5261 14.0234 14.25 14.0234C13.9739 14.0234 13.75 13.7996 13.75 13.5234C13.75 13.2473 13.9739 13.0234 14.25 13.0234C14.5261 13.0234 14.75 13.2473 14.75 13.5234ZM14.75 15.5234C14.75 15.7996 14.5261 16.0234 14.25 16.0234C13.9739 16.0234 13.75 15.7996 13.75 15.5234C13.75 15.2473 13.9739 15.0234 14.25 15.0234C14.5261 15.0234 14.75 15.2473 14.75 15.5234ZM9 14.5234C9 13.2808 10.0074 12.2734 11.25 12.2734C12.4926 12.2734 13.5 13.2808 13.5 14.5234C13.5 15.7661 12.4926 16.7734 11.25 16.7734C10.0074 16.7734 9 15.7661 9 14.5234ZM4 14.5234C4 13.2808 5.00736 12.2734 6.25 12.2734C7.49264 12.2734 8.5 13.2808 8.5 14.5234C8.5 15.7661 7.49264 16.7734 6.25 16.7734C5.00736 16.7734 4 15.7661 4 14.5234Z" fill="#1D1D1D"/>
</svg>

<svg viewBox="0 0 24 25" xmlns="http://www.w3.org/2000/svg">
  <path d="M4.5 10.273v-.5H6v.5H4.5zM16.5 10.523v-.75H19v.75h-2.5zM16.5 11.523v3.75H19v-3.75h-2.5zM11.25 13.773a.75.75 0 1 0 0 1.5.75.75 0 0 0 0-1.5zM6.25 13.773a.75.75 0 1 0 0 1.5.75.75 0 0 0 0-1.5z"/>
  <path fill-rule="evenodd" clip-rule="evenodd" d="M1 8.023c0-.966.784-1.75 1.75-1.75h18c.966 0 1.75.784 1.75 1.75v9a1.75 1.75 0 0 1-1.75 1.75h-18A1.75 1.75 0 0 1 1 17.023v-9zm2.75.25a.75.75 0 0 0-.75.75v2c0 .415.336.75.75.75h3a.75.75 0 0 0 .75-.75v-2a.75.75 0 0 0-.75-.75h-3zm12 0a.75.75 0 0 0-.75.75v7c0 .415.336.75.75.75h4a.75.75 0 0 0 .75-.75v-7a.75.75 0 0 0-.75-.75h-4zm-1.5 3.75a.5.5 0 1 0 0-1 .5.5 0 0 0 0 1zm.5 1.5a.5.5 0 1 1-1 0 .5.5 0 0 1 1 0zm0 2a.5.5 0 1 1-1 0 .5.5 0 0 1 1 0zm-5.75-1a2.25 2.25 0 1 1 4.5 0 2.25 2.25 0 0 1-4.5 0zm-5 0a2.25 2.25 0 1 1 4.5 0 2.25 2.25 0 0 1-4.5 0z"/>
</svg>
